X: 16
T:Paddy Taylors
R:Jig
M:6/8
D:Session tape - Belfast '84
Z:Bernie Stocks
K:D
EAB =c3 | Adc d2e | faf ded | ABG FAD | dcd afd | Bef g2e | fed cAF | GEA D3 ::
dcd faf | gec Ace | dcd FAB | =cBc EFG | dcd faf | gec Ace | dcd DFA | GEA D3 ::
~d3 ~a3 | ~g3 ~a3 |~d3 ~a3 | gef gfe | def ecA | GAB AFG | Adc ABA | GEA D3 :||
<end>
<start>
